data/cards/self-care/exercising.svg

<svg width="512" height="512" viewBox="0 0 512 512" fill="none" xmlns="http://www.w3.org/2000/svg">
<g clip-path="url(#clip0)">
<path d="M335.589 345.61V413.547L247.505 424.543L211.958 468.27L176.401 424.543V345.61L256 330.125L335.589 345.61Z" fill="#4F4C5F"/>
<path d="M132.4 94.5313C157.12 94.5313 177.159 74.4919 177.159 49.772C177.159 25.0521 157.12 5.0127 132.4 5.0127C107.68 5.0127 87.6406 25.0521 87.6406 49.772C87.6406 74.4919 107.68 94.5313 132.4 94.5313Z" fill="#423E4F"/>
<path d="M379.6 94.5313C404.32 94.5313 424.359 74.4919 424.359 49.772C424.359 25.0521 404.32 5.0127 379.6 5.0127C354.88 5.0127 334.841 25.0521 334.841 49.772C334.841 74.4919 354.88 94.5313 379.6 94.5313Z" fill="#4F4C5F"/>
<path d="M407.027 201.41C411.117 187.418 413.321 172.628 413.321 157.332C413.321 146.821 412.28 136.535 410.309 126.592L255.995 93.3398L101.681 126.592C99.7112 136.536 98.6687 146.821 98.6687 157.332C98.6687 172.628 100.872 187.417 104.963 201.41H407.027Z" fill="#5C586F"/>
<path d="M132.4 60.0874C161.232 23.519 205.919 0 256 0C306.071 0 350.758 23.519 379.59 60.0874L255.995 93.3396L132.4 60.0874Z" fill="#5C586F"/>
<path d="M137.638 157.165C137.638 143.512 139.686 130.253 143.522 117.575L101.682 126.591C99.7122 136.535 98.6697 146.82 98.6697 157.331C98.6697 172.627 100.873 187.416 104.964 201.409H145.012C140.212 187.337 137.638 172.498 137.638 157.165Z" fill="#4F4C5F"/>
<path d="M142.816 163.74C136.915 159.57 129.868 157.331 122.643 157.331C99.7958 157.331 83.01 178.913 88.7893 201.018C108.191 275.215 175.803 330.125 256 330.125V243.728L142.816 163.74Z" fill="#FFCABD"/>
<path d="M369.184 163.74C375.085 159.57 382.132 157.331 389.357 157.331C412.204 157.331 428.99 178.913 423.211 201.018C403.81 275.214 336.198 330.124 256 330.124V243.727L369.184 163.74Z" fill="#FFCABD"/>
<path d="M202.72 385.275C202.72 368.397 203.708 353.36 205.577 339.934L176.401 345.609V424.542L211.959 468.269L213.618 466.228C206.11 444.74 202.72 418.002 202.72 385.275Z" fill="#423E4F"/>
<path d="M176.401 231.2H335.589V345.609H176.401V231.2Z" fill="#FF889E"/>
<path d="M328.894 231.2H176.401V345.609H204.853C215.551 253.927 265.56 234.446 328.894 231.2Z" fill="#FF748F"/>
<path d="M374.896 157.331C374.896 222.989 321.659 276.228 256 276.228C190.332 276.228 137.093 222.99 137.093 157.331C137.093 146.706 138.486 136.401 141.116 126.592H370.872C373.503 136.401 374.896 146.706 374.896 157.331Z" fill="#FFDCCE"/>
<path d="M276.373 1.32996C269.7 0.462551 262.904 0 256 0C205.919 0 161.232 23.519 132.4 60.0874L168.41 69.7752C193.22 37.5923 231.324 13.0339 276.373 1.32996Z" fill="#4F4C5F"/>
<path d="M379.59 60.0869C371.14 60.0869 135.763 60.0869 132.401 60.0869C117.33 79.1916 106.602 101.855 101.682 126.59H410.31C405.389 101.855 394.65 79.1916 379.59 60.0869Z" fill="#FF889E"/>
<path d="M176.404 424.548V476.45C176.404 496.084 192.32 512 211.954 512C231.587 512 247.503 496.084 247.503 476.45V424.548H176.404Z" fill="#FFDCCE"/>
<path d="M182.611 207.372C197.565 207.372 209.688 197.718 209.688 185.809C209.688 173.9 197.565 164.246 182.611 164.246C167.657 164.246 155.534 173.9 155.534 185.809C155.534 197.718 167.657 207.372 182.611 207.372Z" fill="#FF9DB0"/>
<path d="M329.379 207.372C344.333 207.372 356.456 197.718 356.456 185.809C356.456 173.9 344.333 164.246 329.379 164.246C314.424 164.246 302.302 173.9 302.302 185.809C302.302 197.718 314.424 207.372 329.379 207.372Z" fill="#FF9DB0"/>
<path d="M198.391 171.748C190.803 171.748 183.588 168.461 178.595 162.732C175.792 159.515 176.127 154.635 179.344 151.831C182.561 149.028 187.441 149.363 190.246 152.58C192.303 154.94 195.272 156.295 198.391 156.295C201.511 156.295 204.48 154.941 206.537 152.58C209.34 149.363 214.221 149.028 217.438 151.831C220.656 154.634 220.99 159.515 218.187 162.732C213.195 168.461 205.98 171.748 198.391 171.748Z" fill="#423E4F"/>
<path d="M313.598 171.748C306.011 171.748 298.796 168.461 293.804 162.732C291 159.515 291.335 154.635 294.552 151.831C297.77 149.028 302.65 149.363 305.454 152.58C307.511 154.94 310.48 156.295 313.599 156.295C316.719 156.295 319.688 154.941 321.745 152.58C324.548 149.363 329.429 149.028 332.647 151.831C335.864 154.634 336.199 159.515 333.395 162.732C328.401 168.461 321.186 171.748 313.598 171.748Z" fill="#423E4F"/>
<path d="M255.995 188.247C261.961 188.247 266.797 183.089 266.797 176.727C266.797 170.364 261.961 165.206 255.995 165.206C250.029 165.206 245.192 170.364 245.192 176.727C245.192 183.089 250.029 188.247 255.995 188.247Z" fill="#423E4F"/>
<path d="M329.087 377.021H295.832L281.619 412.57L295.832 448.119H329.087C348.721 448.119 364.637 432.203 364.637 412.57C364.637 392.937 348.721 377.021 329.087 377.021Z" fill="#5C586F"/>
<path d="M295.832 377.021H264.56C244.927 377.021 229.01 392.937 229.01 412.57C229.01 432.203 244.927 448.119 264.56 448.119H295.832V377.021Z" fill="#FFCABD"/>
<path d="M176.486 60.0869C150.972 60.0869 133.303 60.0869 132.4 60.0869C117.329 79.1906 106.601 101.854 101.68 126.591H141.124C146.774 102.037 159.094 79.4286 176.486 60.0869Z" fill="#FF748F"/>
<path d="M204.691 424.548H176.403V476.45C176.403 496.084 192.319 512 211.953 512C220.846 512 228.97 508.726 235.204 503.329C218.233 485.038 208.546 459.252 204.691 424.548Z" fill="#FFCABD"/>
</g>
<defs>
<clipPath id="clip0">
<rect width="512" height="512" fill="white"/>
</clipPath>
</defs>
</svg>

<svg xmlns="http://www.w3.org/2000/svg" width="512" height="512" fill="none"><g clip-path="url(#a)"><path fill="#4F4C5F" d="M335.589 345.61v67.937l-88.084 10.996-35.547 43.727-35.557-43.727V345.61L256 330.125l79.589 15.485Z"/><path fill="#423E4F" d="M132.4 94.531c24.72 0 44.759-20.04 44.759-44.759 0-24.72-20.039-44.76-44.759-44.76s-44.76 20.04-44.76 44.76 20.04 44.76 44.76 44.76Z"/><path fill="#4F4C5F" d="M379.6 94.531c24.72 0 44.759-20.04 44.759-44.759 0-24.72-20.039-44.76-44.759-44.76s-44.759 20.04-44.759 44.76 20.039 44.76 44.759 44.76Z"/><path fill="#5C586F" d="M407.027 201.41a156.875 156.875 0 0 0 6.294-44.078c0-10.511-1.041-20.797-3.012-30.74L255.995 93.34l-154.314 33.252a158.13 158.13 0 0 0-3.012 30.74c0 15.296 2.203 30.085 6.294 44.078h302.064ZM132.4 60.087C161.232 23.52 205.919 0 256 0c50.071 0 94.758 23.519 123.59 60.087L255.995 93.34 132.4 60.087Z"/><path fill="#4F4C5F" d="M137.638 157.165c0-13.653 2.048-26.912 5.884-39.59l-41.84 9.016a158.13 158.13 0 0 0-3.012 30.74c0 15.296 2.203 30.085 6.294 44.078h40.048c-4.8-14.072-7.374-28.911-7.374-44.244Z"/><path fill="#FFCABD" d="M142.816 163.74a34.954 34.954 0 0 0-20.173-6.409c-22.847 0-39.633 21.582-33.854 43.687C108.191 275.215 175.803 330.125 256 330.125v-86.397L142.816 163.74Zm226.368 0a34.954 34.954 0 0 1 20.173-6.409c22.847 0 39.633 21.582 33.854 43.687C403.81 275.214 336.198 330.124 256 330.124v-86.397l113.184-79.987Z"/><path fill="#423E4F" d="M202.72 385.275c0-16.878.988-31.915 2.857-45.341l-29.176 5.675v78.933l35.558 43.727 1.659-2.041c-7.508-21.488-10.898-48.226-10.898-80.953Z"/><path fill="#FF889E" d="M176.401 231.2h159.188v114.409H176.401V231.2Z"/><path fill="#FF748F" d="M328.894 231.2H176.401v114.409h28.452c10.698-91.682 60.707-111.163 124.041-114.409Z"/><path fill="#FFDCCE" d="M374.896 157.331c0 65.658-53.237 118.897-118.896 118.897-65.668 0-118.907-53.238-118.907-118.897 0-10.625 1.393-20.93 4.023-30.739h229.756c2.631 9.809 4.024 20.114 4.024 30.739Z"/><path fill="#4F4C5F" d="M276.373 1.33A157.938 157.938 0 0 0 256 0c-50.081 0-94.768 23.519-123.6 60.087l36.01 9.688c24.81-32.183 62.914-56.741 107.963-68.445Z"/><path fill="#FF889E" d="M379.59 60.087H132.401c-15.071 19.105-25.799 41.768-30.719 66.503H410.31c-4.921-24.735-15.66-47.398-30.72-66.503Z"/><path fill="#FFDCCE" d="M176.404 424.548v51.902c0 19.634 15.916 35.55 35.55 35.55 19.633 0 35.549-15.916 35.549-35.55v-51.902h-71.099Z"/><path fill="#FF9DB0" d="M182.611 207.372c14.954 0 27.077-9.654 27.077-21.563 0-11.909-12.123-21.563-27.077-21.563-14.954 0-27.077 9.654-27.077 21.563 0 11.909 12.123 21.563 27.077 21.563Zm146.768 0c14.954 0 27.077-9.654 27.077-21.563 0-11.909-12.123-21.563-27.077-21.563-14.955 0-27.077 9.654-27.077 21.563 0 11.909 12.122 21.563 27.077 21.563Z"/><path fill="#423E4F" d="M198.391 171.748a26.257 26.257 0 0 1-19.796-9.016 7.727 7.727 0 0 1 11.651-10.152 10.808 10.808 0 0 0 8.145 3.715c3.12 0 6.089-1.354 8.146-3.715a7.727 7.727 0 0 1 11.65 10.152 26.254 26.254 0 0 1-19.796 9.016Zm115.207 0a26.253 26.253 0 0 1-19.794-9.016 7.726 7.726 0 1 1 11.65-10.152 10.808 10.808 0 0 0 8.145 3.715c3.12 0 6.089-1.354 8.146-3.715a7.728 7.728 0 0 1 10.902-.749 7.726 7.726 0 0 1 .748 10.901 26.26 26.26 0 0 1-19.797 9.016Zm-57.603 16.499c5.966 0 10.802-5.158 10.802-11.52 0-6.363-4.836-11.521-10.802-11.521-5.966 0-10.803 5.158-10.803 11.521 0 6.362 4.837 11.52 10.803 11.52Z"/><path fill="#5C586F" d="M329.087 377.021h-33.255l-14.213 35.549 14.213 35.549h33.255c19.634 0 35.55-15.916 35.55-35.549s-15.916-35.549-35.55-35.549Z"/><path fill="#FFCABD" d="M295.832 377.021H264.56c-19.633 0-35.55 15.916-35.55 35.549s15.917 35.549 35.55 35.549h31.272v-71.098Z"/><path fill="#FF748F" d="M176.486 60.087H132.4c-15.071 19.104-25.799 41.767-30.72 66.504h39.444c5.65-24.554 17.97-47.162 35.362-66.504Z"/><path fill="#FFCABD" d="M204.691 424.548h-28.288v51.902c0 19.634 15.916 35.55 35.55 35.55 8.893 0 17.017-3.274 23.251-8.671-16.971-18.291-26.658-44.077-30.513-78.781Z"/></g><defs><clipPath id="a"><path fill="#fff" d="M0 0h512v512H0z"/></clipPath></defs></svg>
